; generated by Slic3r 1.3.0 on 2022-04-19 at 11:13:08

; external perimeters extrusion width = 0.55mm (1.46mm^3/s)
; perimeters extrusion width = 0.70mm (3.81mm^3/s)
; infill extrusion width = 0.62mm (13.45mm^3/s)
; solid infill extrusion width = 0.70mm (3.81mm^3/s)
; top infill extrusion width = 0.70mm (2.86mm^3/s)

M107
M190 S65 ; set bed temperature and wait for it to be reached
M104 S205 ; set temperature
G28 ; home all axes
G1 Z5 F5000 ; lift nozzle

; Filament gcode

M109 S205 ; set temperature and wait for it to be reached
G21 ; set units to millimeters
G90 ; use absolute coordinates
M82 ; use absolute distances for extrusion
G92 E0
G1 Z0.350 F7800.000
G1 E-4.00000 F2400.00000
G92 E0
G1 X82.215 Y89.403 F7800.000
G1 E4.00000 F2400.00000
G1 F1800
G1 X83.968 Y87.924 E4.20854
G1 X86.120 Y87.131 E4.41708
G1 X87.300 Y87.025 E4.52479
G1 X112.700 Y87.025 E6.83440
G1 X114.959 Y87.422 E7.04295
G1 X116.947 Y88.565 E7.25149
G1 X118.426 Y90.318 E7.46003
G1 X119.219 Y92.470 E7.66857
G1 X119.325 Y93.650 E7.77628
G1 X119.325 Y106.350 E8.93109
G1 X118.928 Y108.609 E9.13963
G1 X117.785 Y110.597 E9.34817
G1 X116.032 Y112.076 E9.55672
G1 X113.880 Y112.869 E9.76526
G1 X112.700 Y112.975 E9.87297
G1 X87.300 Y112.975 E12.18258
G1 X85.041 Y112.578 E12.39112
G1 X83.053 Y111.435 E12.59966
G1 X81.574 Y109.682 E12.80821
G1 X80.781 Y107.530 E13.01675
G1 X80.675 Y106.350 E13.12446
G1 X80.675 Y93.650 E14.27926
G1 X81.072 Y91.391 E14.48781
G1 X82.178 Y89.468 E14.68953
G1 E10.68953 F2400.00000
G92 E0
G1 X111.100 Y104.009 F7800.000
G1 E4.00000 F2400.00000
G1 F1800
G1 X110.505 Y103.777 E4.05808
G1 X107.569 Y102.937 E4.33578
G1 X104.568 Y102.372 E4.61347
G1 X101.527 Y102.089 E4.89117
G1 X98.472 Y102.089 E5.16895
G1 X95.392 Y102.380 E5.45027
G1 X92.431 Y102.937 E5.72423
G1 X89.495 Y103.777 E6.00193
G1 X88.900 Y104.009 E6.06001
G1 X88.900 Y95.250 E6.85650
G1 X111.100 Y95.250 E8.87518
G1 X111.100 Y103.934 E9.66485
G1 X111.725 Y104.924 F7800.000
G1 F1800
G1 X110.305 Y104.370 E9.80343
G1 X107.425 Y103.545 E10.07584
G1 X104.481 Y102.992 E10.34825
G1 X101.498 Y102.714 E10.62066
G1 X98.501 Y102.714 E10.89312
G1 X95.479 Y102.999 E11.16916
G1 X92.575 Y103.545 E11.43787
G1 X89.695 Y104.370 E11.71028
G1 X88.275 Y104.924 E11.84886
G1 X88.275 Y94.625 E12.78531
G1 X111.725 Y94.625 E14.91763
G1 X111.725 Y104.849 E15.84726
G1 X112.350 Y105.838 F7800.000
G1 F1800
G1 X110.105 Y104.963 E16.06634
G1 X107.281 Y104.154 E16.33347
G1 X104.394 Y103.611 E16.60059
G1 X101.469 Y103.339 E16.86772
G1 X98.531 Y103.339 E17.13486
G1 X95.567 Y103.619 E17.40561
G1 X92.719 Y104.154 E17.66907
G1 X89.895 Y104.963 E17.93620
G1 X87.650 Y105.838 E18.15528
G1 X87.650 Y94.000 E19.23169
G1 X112.350 Y94.000 E21.47765
G1 X112.350 Y105.763 E22.54725
G1 X111.889 Y105.645 F7800.000
G1 E18.54725 F2400.00000
G92 E0
G1 X110.232 Y103.362 F7800.000
G1 E4.00000 F2400.00000
G1 F1800
G1 X110.718 Y102.876 E4.06434
G1 X110.718 Y101.966 E4.14945
G1 X109.525 Y103.159 E4.30737
G1 X108.818 Y102.957 E4.37620
G1 X110.718 Y101.057 E4.62769
G1 X110.718 Y100.147 E4.71280
G1 X108.111 Y102.754 E5.05788
G1 X107.398 Y102.557 E5.12706
G1 X110.718 Y99.238 E5.56643
G1 X110.718 Y98.328 E5.65155
G1 X106.633 Y102.414 E6.19224
G1 X105.867 Y102.270 E6.26513
G1 X110.718 Y97.419 E6.90714
G1 X110.718 Y96.509 E6.99225
G1 X105.102 Y102.126 E7.73557
G1 X104.330 Y101.988 E7.80895
G1 X110.686 Y95.632 E8.65021
G1 X109.777 Y95.632 E8.73532
G1 X103.498 Y101.911 E9.56631
G1 X102.666 Y101.833 E9.64450
G1 X108.867 Y95.632 E10.46523
G1 X107.958 Y95.632 E10.55034
G1 X101.834 Y101.756 E11.36081
G1 X101.313 Y101.707 E11.40976
G1 X100.973 Y101.707 E11.44159
G1 X107.048 Y95.632 E12.24563
G1 X106.139 Y95.632 E12.33074
G1 X100.063 Y101.707 E13.13478
G1 X99.154 Y101.707 E13.21989
G1 X105.229 Y95.632 E14.02393
G1 X104.320 Y95.632 E14.10904
G1 X98.244 Y101.707 E14.91308
G1 X97.245 Y101.797 E15.00702
G1 X103.410 Y95.632 E15.82300
G1 X102.501 Y95.632 E15.90811
G1 X96.240 Y101.892 E16.73665
G1 X95.236 Y101.987 E16.83106
G1 X101.591 Y95.632 E17.67215
G1 X100.682 Y95.632 E17.75726
G1 X94.136 Y102.178 E18.62358
G1 X93.016 Y102.388 E18.73024
G1 X99.772 Y95.632 E19.62443
G1 X98.863 Y95.632 E19.70954
G1 X91.875 Y102.619 E20.63431
G1 X90.601 Y102.984 E20.75835
G1 X97.953 Y95.632 E21.73140
G1 X97.044 Y95.632 E21.81651
G1 X89.327 Y103.349 E22.83783
G1 X89.282 Y103.362 E22.84221
G1 X89.282 Y102.484 E22.92432
G1 X96.134 Y95.632 E23.83123
G1 X95.225 Y95.632 E23.91635
G1 X89.282 Y101.575 E24.70289
G1 X89.282 Y100.665 E24.78801
G1 X94.315 Y95.632 E25.45419
G1 X93.406 Y95.632 E25.53930
G1 X89.282 Y99.756 E26.08511
G1 X89.282 Y98.846 E26.17023
G1 X92.496 Y95.632 E26.59567
G1 X91.587 Y95.632 E26.68079
G1 X89.282 Y97.937 E26.98587
G1 X89.282 Y97.027 E27.07098
G1 X90.677 Y95.632 E27.25569
G1 X89.768 Y95.632 E27.34081
G1 X89.282 Y96.118 E27.40513
M104 S200 ; set temperature
M140 S60 ; set bed temperature
G1 Z0.650 F7800.000
G1 X111.229 Y104.197 F7800.000
G1 F1200
G1 X110.464 Y103.899 E27.47021
G1 X107.539 Y103.062 E27.71137
G1 X104.550 Y102.500 E27.95253
G1 X101.521 Y102.217 E28.19370
G1 X98.479 Y102.217 E28.43486
G1 X95.450 Y102.500 E28.67602
G1 X92.461 Y103.062 E28.91719
G1 X89.536 Y103.899 E29.15835
G1 X88.771 Y104.197 E29.22343
G1 X88.771 Y95.121 E29.94296
G1 X111.229 Y95.121 E31.72334
G1 X111.229 Y104.122 E32.43693
G1 X111.864 Y105.127 F7800.000
G1 F1200
G1 X110.261 Y104.502 E32.57339
G1 X107.393 Y103.681 E32.80987
G1 X104.461 Y103.130 E33.04634
G1 X101.491 Y102.853 E33.28282
G1 X98.509 Y102.853 E33.51930
G1 X95.539 Y103.130 E33.75577
G1 X92.607 Y103.681 E33.99225
G1 X89.739 Y104.502 E34.22873
G1 X88.136 Y105.127 E34.36519
G1 X88.136 Y94.486 E35.20884
G1 X111.864 Y94.486 E37.09001
G1 X111.864 Y105.052 E37.92772
G1 X112.425 Y105.948 F7800.000
G1 F600
G1 X110.081 Y105.034 E38.08008
G1 X107.264 Y104.227 E38.25759
G1 X104.383 Y103.686 E38.43511
G1 X101.465 Y103.414 E38.61262
G1 X98.535 Y103.414 E38.79013
G1 X95.617 Y103.686 E38.96764
G1 X92.736 Y104.227 E39.14516
G1 X89.919 Y105.034 E39.32267
G1 X87.575 Y105.948 E39.47503
G1 X87.575 Y93.925 E40.20323
G1 X112.425 Y93.925 E41.70838
G1 X112.425 Y105.873 E42.43203
G1 X111.964 Y105.754 F7800.000
G1 X110.840 Y96.004 F7800.000
G1 F1200
G1 X110.346 Y95.510 E42.48915
G1 X109.420 Y95.510 E42.56476
G1 X110.840 Y96.930 E42.72881
G1 X110.840 Y97.856 E42.80442
G1 X108.494 Y95.510 E43.07541
G1 X107.568 Y95.510 E43.15102
G1 X110.840 Y98.782 E43.52894
G1 X110.840 Y99.708 E43.60455
G1 X106.642 Y95.510 E44.08941
G1 X105.716 Y95.510 E44.16502
G1 X110.840 Y100.634 E44.75681
G1 X110.840 Y101.560 E44.83243
G1 X104.790 Y95.510 E45.53115
G1 X103.864 Y95.510 E45.60676
G1 X110.840 Y102.486 E46.41242
G1 X110.840 Y103.412 E46.48804
G1 X102.938 Y95.510 E47.40063
G1 X102.012 Y95.510 E47.47625
G1 X109.698 Y103.195 E48.36382
G1 X108.400 Y102.824 E48.47402
G1 X101.086 Y95.510 E49.31871
G1 X100.160 Y95.510 E49.39432
G1 X107.204 Y102.553 E50.20771
G1 X106.063 Y102.338 E50.30247
G1 X99.235 Y95.510 E51.09110
G1 X98.309 Y95.510 E51.16671
G1 X104.923 Y102.124 E51.93057
G1 X103.898 Y102.025 E52.01466
G1 X97.383 Y95.510 E52.76708
G1 X96.457 Y95.510 E52.84269
G1 X102.877 Y101.930 E53.58412
G1 X101.856 Y101.834 E53.66787
G1 X95.531 Y95.510 E54.39830
G1 X94.605 Y95.510 E54.47392
G1 X100.924 Y101.829 E55.20373
G1 X99.998 Y101.829 E55.27934
G1 X93.679 Y95.510 E56.00915
G1 X92.753 Y95.510 E56.08477
G1 X99.072 Y101.829 E56.81458
G1 X98.697 Y101.829 E56.84526
G1 X98.193 Y101.876 E56.88654
G1 X91.827 Y95.510 E57.62177
G1 X90.901 Y95.510 E57.69738
G1 X97.346 Y101.955 E58.44173
G1 X96.499 Y102.034 E58.51120
G1 X89.975 Y95.510 E59.26466
G1 X89.160 Y95.510 E59.33126
G1 X89.160 Y95.620 E59.34028
G1 X95.652 Y102.113 E60.09010
G1 X94.869 Y102.256 E60.15509
G1 X89.160 Y96.546 E60.81451
G1 X89.160 Y97.472 E60.89013
G1 X94.090 Y102.402 E61.45954
G1 X93.311 Y102.549 E61.52430
G1 X89.160 Y98.398 E62.00370
G1 X89.160 Y99.324 E62.07931
G1 X92.534 Y102.698 E62.46897
G1 X91.814 Y102.904 E62.53012
G1 X89.160 Y100.250 E62.83664
G1 X89.160 Y101.176 E62.91225
G1 X91.094 Y103.110 E63.13563
G1 X90.374 Y103.316 E63.19678
G1 X89.160 Y102.102 E63.33703
G1 X89.160 Y103.028 E63.41264
G1 X89.654 Y103.522 E63.46974
G1 Z0.950 F7800.000
G1 E59.46974 F2400.00000
G92 E0
G1 X111.229 Y104.197 F7800.000
G1 E4.00000 F2400.00000
G1 F1200
G1 X110.464 Y103.899 E4.06508
G1 X107.539 Y103.062 E4.30624
G1 X104.550 Y102.500 E4.54740
G1 X101.521 Y102.217 E4.78857
G1 X98.479 Y102.217 E5.02973
G1 X95.450 Y102.500 E5.27089
G1 X92.461 Y103.062 E5.51205
G1 X89.536 Y103.899 E5.75322
G1 X88.771 Y104.197 E5.81829
G1 X88.771 Y95.121 E6.53782
G1 X111.229 Y95.121 E8.31821
G1 X111.229 Y104.122 E9.03179
G1 X111.864 Y105.127 F7800.000
G1 F1200
G1 X110.261 Y104.502 E9.16826
G1 X107.393 Y103.681 E9.40474
G1 X104.461 Y103.130 E9.64121
G1 X101.491 Y102.853 E9.87769
G1 X98.509 Y102.853 E10.11416
G1 X95.539 Y103.130 E10.35064
G1 X92.607 Y103.681 E10.58712
G1 X89.739 Y104.502 E10.82359
G1 X88.136 Y105.127 E10.96006
G1 X88.136 Y94.486 E11.80371
G1 X111.864 Y94.486 E13.68488
G1 X111.864 Y105.052 E14.52258
G1 X112.425 Y105.948 F7800.000
G1 F600
G1 X110.081 Y105.034 E14.67495
G1 X107.264 Y104.227 E14.85246
G1 X104.383 Y103.686 E15.02997
G1 X101.465 Y103.414 E15.20749
G1 X98.535 Y103.414 E15.38500
G1 X95.617 Y103.686 E15.56251
G1 X92.736 Y104.227 E15.74002
G1 X89.919 Y105.034 E15.91754
G1 X87.575 Y105.948 E16.06990
G1 X87.575 Y93.925 E16.79810
G1 X112.425 Y93.925 E18.30324
G1 X112.425 Y105.873 E19.02690
G1 X111.964 Y105.754 F7800.000
G1 X110.346 Y103.522 F7800.000
G1 F1200
G1 X110.840 Y103.028 E19.08401
G1 X110.840 Y102.102 E19.15962
G1 X109.626 Y103.316 E19.29987
G1 X108.906 Y103.110 E19.36102
G1 X110.840 Y101.176 E19.58440
G1 X110.840 Y100.250 E19.66001
G1 X108.186 Y102.904 E19.96653
G1 X107.466 Y102.698 E20.02768
G1 X110.840 Y99.324 E20.41733
G1 X110.840 Y98.398 E20.49294
G1 X106.689 Y102.549 E20.97234
G1 X105.910 Y102.402 E21.03710
G1 X110.840 Y97.472 E21.60651
G1 X110.840 Y96.546 E21.68212
G1 X105.131 Y102.256 E22.34154
G1 X104.348 Y102.113 E22.40652
G1 X110.840 Y95.620 E23.15635
G1 X110.840 Y95.510 E23.16537
G1 X110.025 Y95.510 E23.23196
G1 X103.501 Y102.034 E23.98543
G1 X102.654 Y101.955 E24.05489
G1 X109.099 Y95.510 E24.79924
G1 X108.173 Y95.510 E24.87486
G1 X101.807 Y101.876 E25.61009
G1 X101.303 Y101.829 E25.65137
G1 X100.928 Y101.829 E25.68205
G1 X107.247 Y95.510 E26.41186
G1 X106.321 Y95.510 E26.48747
G1 X100.002 Y101.829 E27.21729
G1 X99.076 Y101.829 E27.29290
G1 X105.395 Y95.510 E28.02271
G1 X104.469 Y95.510 E28.09833
G1 X98.145 Y101.834 E28.82876
G1 X97.123 Y101.930 E28.91251
G1 X103.543 Y95.510 E29.65393
G1 X102.617 Y95.510 E29.72955
G1 X96.102 Y102.025 E30.48196
G1 X95.077 Y102.124 E30.56606
G1 X101.691 Y95.510 E31.32991
G1 X100.765 Y95.510 E31.40553
G1 X93.937 Y102.338 E32.19415
G1 X92.797 Y102.553 E32.28891
G1 X99.840 Y95.510 E33.10230
G1 X98.914 Y95.510 E33.17791
G1 X91.600 Y102.824 E34.02260
G1 X90.302 Y103.195 E34.13280
G1 X97.988 Y95.510 E35.02037
G1 X97.062 Y95.510 E35.09598
G1 X89.160 Y103.412 E36.00858
G1 X89.160 Y102.486 E36.08420
G1 X96.136 Y95.510 E36.88986
G1 X95.210 Y95.510 E36.96548
G1 X89.160 Y101.560 E37.66420
G1 X89.160 Y100.634 E37.73982
G1 X94.284 Y95.510 E38.33161
G1 X93.358 Y95.510 E38.40723
G1 X89.160 Y99.708 E38.89209
G1 X89.160 Y98.782 E38.96770
G1 X92.432 Y95.510 E39.34562
G1 X91.506 Y95.510 E39.42124
G1 X89.160 Y97.856 E39.69223
G1 X89.160 Y96.930 E39.76784
G1 X90.580 Y95.510 E39.93189
G1 X89.654 Y95.510 E40.00751
G1 X89.160 Y96.004 E40.06460
M106 S224.4
G1 Z1.250 F7800.000
G1 X111.229 Y104.197 F7800.000
G1 F1200
G1 X110.464 Y103.899 E40.12968
G1 X107.539 Y103.062 E40.37084
G1 X104.550 Y102.500 E40.61201
G1 X101.521 Y102.217 E40.85317
G1 X98.479 Y102.217 E41.09433
G1 X95.450 Y102.500 E41.33550
G1 X92.461 Y103.062 E41.57666
G1 X89.536 Y103.899 E41.81782
G1 X88.771 Y104.197 E41.88290
G1 X88.771 Y95.121 E42.60243
G1 X111.229 Y95.121 E44.38282
G1 X111.229 Y104.122 E45.09640
G1 X111.864 Y105.127 F7800.000
G1 F1200
G1 X110.261 Y104.502 E45.23286
G1 X107.393 Y103.681 E45.46934
G1 X104.461 Y103.130 E45.70582
G1 X101.491 Y102.853 E45.94229
G1 X98.509 Y102.853 E46.17877
G1 X95.539 Y103.130 E46.41525
G1 X92.607 Y103.681 E46.65172
G1 X89.739 Y104.502 E46.88820
G1 X88.136 Y105.127 E47.02466
G1 X88.136 Y94.486 E47.86832
G1 X111.864 Y94.486 E49.74948
G1 X111.864 Y105.052 E50.58719
G1 X112.425 Y105.948 F7800.000
G1 F600
G1 X110.081 Y105.034 E50.73956
G1 X107.264 Y104.227 E50.91707
G1 X104.383 Y103.686 E51.09458
G1 X101.465 Y103.414 E51.27209
G1 X98.535 Y103.414 E51.44960
G1 X95.617 Y103.686 E51.62712
G1 X92.736 Y104.227 E51.80463
G1 X89.919 Y105.034 E51.98214
G1 X87.575 Y105.948 E52.13451
G1 X87.575 Y93.925 E52.86271
G1 X112.425 Y93.925 E54.36785
G1 X112.425 Y105.873 E55.09151
G1 X111.964 Y105.754 F7800.000
G1 X110.948 Y101.419 F7800.000
G1 F4800
G1 X106.957 Y102.489 E55.38042
G1 X107.931 Y102.894 F7800.000
G1 F4800
G1 X109.938 Y95.402 E55.92278
G1 X110.863 Y98.971 F7800.000
G1 F4800
G1 X107.379 Y95.487 E56.26730
G1 X95.487 Y95.487 E57.09887
G1 X101.859 Y101.859 E57.72902
G1 X98.684 Y101.852 E57.95105
G1 X95.600 Y102.139 E58.16765
G1 X92.555 Y102.712 E58.38424
G1 X91.206 Y103.098 E58.48240
G1 X89.137 Y101.029 E58.68699
G1 X89.052 Y98.581 F7800.000
G1 F4800
G1 X100.048 Y95.634 E59.48302
G1 X101.232 Y95.402 F7800.000
G1 F4800
G1 X99.481 Y101.937 E59.95612
G1 X90.404 Y103.322 F7800.000
G1 F4800
G1 X92.526 Y95.402 E60.52947
G1 Z1.550 F7800.000
G1 X111.229 Y104.197 F7800.000
G1 F1200
G1 X110.464 Y103.899 E60.59455
G1 X107.539 Y103.062 E60.83571
G1 X104.550 Y102.500 E61.07687
G1 X101.521 Y102.217 E61.31804
G1 X98.479 Y102.217 E61.55920
G1 X95.450 Y102.500 E61.80036
G1 X92.461 Y103.062 E62.04153
G1 X89.536 Y103.899 E62.28269
G1 X88.771 Y104.197 E62.34777
G1 X88.771 Y95.121 E63.06730
G1 X111.229 Y95.121 E64.84768
G1 X111.229 Y104.122 E65.56127
G1 X111.864 Y105.127 F7800.000
G1 F1200
G1 X110.261 Y104.502 E65.69773
G1 X107.393 Y103.681 E65.93421
G1 X104.461 Y103.130 E66.17068
G1 X101.491 Y102.853 E66.40716
G1 X98.509 Y102.853 E66.64364
G1 X95.539 Y103.130 E66.88011
G1 X92.607 Y103.681 E67.11659
G1 X89.739 Y104.502 E67.35307
G1 X88.136 Y105.127 E67.48953
G1 X88.136 Y94.486 E68.33318
G1 X111.864 Y94.486 E70.21435
G1 X111.864 Y105.052 E71.05206
G1 X112.425 Y105.948 F7800.000
G1 F600
G1 X110.081 Y105.034 E71.20442
G1 X107.264 Y104.227 E71.38193
G1 X104.383 Y103.686 E71.55945
G1 X101.465 Y103.414 E71.73696
G1 X98.535 Y103.414 E71.91447
G1 X95.617 Y103.686 E72.09198
G1 X92.736 Y104.227 E72.26950
G1 X89.919 Y105.034 E72.44701
G1 X87.575 Y105.948 E72.59937
G1 X87.575 Y93.925 E73.32757
G1 X112.425 Y93.925 E74.83272
G1 X112.425 Y105.873 E75.55637
G1 X111.964 Y105.754 F7800.000
G1 X110.948 Y101.419 F7800.000
G1 F4800
G1 X106.957 Y102.489 E75.84528
G1 X107.931 Y102.894 F7800.000
G1 F4800
G1 X109.938 Y95.402 E76.38765
G1 X110.863 Y98.971 F7800.000
G1 F4800
G1 X107.379 Y95.487 E76.73217
G1 X95.487 Y95.487 E77.56374
G1 X101.859 Y101.859 E78.19389
G1 X98.684 Y101.852 E78.41592
G1 X95.600 Y102.139 E78.63251
G1 X92.555 Y102.712 E78.84911
G1 X91.206 Y103.098 E78.94727
G1 X89.137 Y101.029 E79.15186
G1 X89.052 Y98.581 F7800.000
G1 F4800
G1 X100.048 Y95.634 E79.94789
G1 X101.232 Y95.402 F7800.000
G1 F4800
G1 X99.481 Y101.937 E80.42099
G1 X90.404 Y103.322 F7800.000
G1 F4800
G1 X92.526 Y95.402 E80.99434
G1 Z1.850 F7800.000
G1 X111.229 Y104.197 F7800.000
G1 F1200
G1 X110.464 Y103.899 E81.05942
G1 X107.539 Y103.062 E81.30058
G1 X104.550 Y102.500 E81.54174
G1 X101.521 Y102.217 E81.78290
G1 X98.479 Y102.217 E82.02407
G1 X95.450 Y102.500 E82.26523
G1 X92.461 Y103.062 E82.50639
G1 X89.536 Y103.899 E82.74756
G1 X88.771 Y104.197 E82.81263
G1 X88.771 Y95.121 E83.53216
G1 X111.229 Y95.121 E85.31255
G1 X111.229 Y104.122 E86.02613
G1 X111.864 Y105.127 F7800.000
G1 F1200
G1 X110.261 Y104.502 E86.16260
G1 X107.393 Y103.681 E86.39907
G1 X104.461 Y103.130 E86.63555
G1 X101.491 Y102.853 E86.87203
G1 X98.509 Y102.853 E87.10850
G1 X95.539 Y103.130 E87.34498
G1 X92.607 Y103.681 E87.58146
G1 X89.739 Y104.502 E87.81793
G1 X88.136 Y105.127 E87.95440
G1 X88.136 Y94.486 E88.79805
G1 X111.864 Y94.486 E90.67922
G1 X111.864 Y105.052 E91.51692
