; generated by Slic3r 1.3.0 on 2022-11-30 at 15:11:44

; external perimeters extrusion width = 0.55mm (1.46mm^3/s)
; perimeters extrusion width = 0.70mm (3.81mm^3/s)
; infill extrusion width = 0.62mm (13.45mm^3/s)
; solid infill extrusion width = 0.70mm (3.81mm^3/s)
; top infill extrusion width = 0.70mm (2.86mm^3/s)

M107
M190 S65 ; set bed temperature and wait for it to be reached
M104 S205 ; set temperature
G28 ; home all axes
G1 Z5 F5000 ; lift nozzle

; Filament gcode

M109 S205 ; set temperature and wait for it to be reached
G21 ; set units to millimeters
G90 ; use absolute coordinates
M82 ; use absolute distances for extrusion
G92 E0
G1 Z0.350 F7800.000
G1 E-4.00000 F2400.00000
G92 E0
G1 X55.568 Y81.574 F7800.000
G1 E4.00000 F2400.00000
G1 F1800
G1 X57.720 Y80.781 E4.20854
G1 X58.900 Y80.675 E4.31625
G1 X141.100 Y80.675 E11.79066
G1 X143.359 Y81.072 E11.99920
G1 X145.347 Y82.215 E12.20775
G1 X146.826 Y83.968 E12.41629
G1 X147.619 Y86.120 E12.62483
G1 X147.725 Y87.300 E12.73254
G1 X147.725 Y112.700 E15.04215
G1 X147.328 Y114.959 E15.25069
G1 X146.185 Y116.947 E15.45924
G1 X144.432 Y118.426 E15.66778
G1 X142.280 Y119.219 E15.87632
G1 X141.100 Y119.325 E15.98403
G1 X58.900 Y119.325 E23.45844
G1 X56.641 Y118.928 E23.66698
G1 X54.653 Y117.785 E23.87553
G1 X53.174 Y116.032 E24.08407
G1 X52.381 Y113.880 E24.29261
G1 X52.275 Y112.700 E24.40032
G1 X52.275 Y87.300 E26.70993
G1 X52.672 Y85.041 E26.91847
G1 X53.815 Y83.053 E27.12702
G1 X55.511 Y81.622 E27.32874
G1 E23.32874 F2400.00000
G92 E0
G1 X133.187 Y107.962 F7800.000
G1 E4.00000 F2400.00000
G1 F1800
G1 X110.913 Y107.962 E6.02545
G1 X110.913 Y92.038 E7.47350
G1 X133.187 Y92.038 E9.49895
G1 X133.187 Y107.887 E10.94018
G1 X132.563 Y107.338 F7800.000
G1 F1800
G1 X111.537 Y107.338 E12.85199
G1 X111.537 Y92.662 E14.18640
G1 X132.563 Y92.662 E16.09821
G1 X132.563 Y107.263 E17.42580
G1 X131.938 Y106.713 F7800.000
G1 F1800
G1 X112.162 Y106.713 E19.22397
G1 X112.162 Y93.287 E20.44473
G1 X131.938 Y93.287 E22.24290
G1 X131.938 Y106.638 E23.45685
G1 X132.097 Y107.187 F7800.000
G1 E19.45685 F2400.00000
G92 E0
G1 X139.500 Y111.100 F7800.000
G1 E4.00000 F2400.00000
G1 F1800
G1 X104.600 Y111.100 E7.17348
G1 X104.600 Y88.900 E9.19216
G1 X139.500 Y88.900 E12.36564
G1 X139.500 Y111.025 E14.37750
G1 X140.125 Y111.725 F7800.000
G1 F1800
G1 X103.975 Y111.725 E17.66462
G1 X103.975 Y88.275 E19.79694
G1 X140.125 Y88.275 E23.08407
G1 X140.125 Y111.650 E25.20957
G1 X140.750 Y112.350 F7800.000
G1 F1800
G1 X103.350 Y112.350 E28.61033
G1 X103.350 Y87.650 E30.85629
G1 X140.750 Y87.650 E34.25706
G1 X140.750 Y112.275 E36.49620
G1 X140.259 Y112.253 F7800.000
G1 E32.49620 F2400.00000
G92 E0
G1 X138.632 Y110.718 F7800.000
G1 E4.00000 F2400.00000
G1 F1800
G1 X139.118 Y110.232 E4.06333
G1 X139.118 Y109.337 E4.14576
G1 X137.737 Y110.718 E4.32568
G1 X136.842 Y110.718 E4.40811
G1 X139.118 Y108.442 E4.70461
G1 X139.118 Y107.547 E4.78705
G1 X135.947 Y110.718 E5.20013
G1 X135.052 Y110.718 E5.28257
G1 X139.118 Y106.652 E5.81224
G1 X139.118 Y105.757 E5.89468
G1 X134.157 Y110.718 E6.54093
G1 X133.262 Y110.718 E6.62337
G1 X139.118 Y104.862 E7.38621
G1 X139.118 Y103.966 E7.46865
G1 X132.366 Y110.718 E8.34807
G1 X131.471 Y110.718 E8.43051
G1 X133.845 Y108.344 E8.73973
G1 X132.950 Y108.344 E8.82217
G1 X130.576 Y110.718 E9.13138
G1 X129.681 Y110.718 E9.21382
G1 X132.055 Y108.344 E9.52304
G1 X131.160 Y108.344 E9.60548
G1 X128.786 Y110.718 E9.91470
G1 X127.891 Y110.718 E9.99714
G1 X130.265 Y108.344 E10.30635
G1 X129.370 Y108.344 E10.38879
G1 X126.996 Y110.718 E10.69801
G1 X126.101 Y110.718 E10.78045
G1 X128.475 Y108.344 E11.08967
G1 X127.580 Y108.344 E11.17211
G1 X125.206 Y110.718 E11.48132
G1 X124.311 Y110.718 E11.56376
G1 X126.685 Y108.344 E11.87298
G1 X125.790 Y108.344 E11.95542
G1 X123.415 Y110.718 E12.26464
G1 X122.520 Y110.718 E12.34708
G1 X124.894 Y108.344 E12.65629
G1 X123.999 Y108.344 E12.73873
G1 X121.625 Y110.718 E13.04795
G1 X120.730 Y110.718 E13.13039
G1 X123.104 Y108.344 E13.43961
G1 X122.209 Y108.344 E13.52205
G1 X119.835 Y110.718 E13.83126
G1 X118.940 Y110.718 E13.91370
G1 X121.314 Y108.344 E14.22292
G1 X120.419 Y108.344 E14.30536
G1 X118.045 Y110.718 E14.61458
G1 X117.150 Y110.718 E14.69702
G1 X119.524 Y108.344 E15.00623
G1 X118.629 Y108.344 E15.08867
G1 X116.255 Y110.718 E15.39789
G1 X115.360 Y110.718 E15.48033
G1 X117.734 Y108.344 E15.78955
G1 X116.839 Y108.344 E15.87199
G1 X114.464 Y110.718 E16.18120
G1 X113.569 Y110.718 E16.26364
G1 X115.943 Y108.344 E16.57286
G1 X115.048 Y108.344 E16.65530
G1 X112.674 Y110.718 E16.96452
G1 X111.779 Y110.718 E17.04696
G1 X114.153 Y108.344 E17.35617
G1 X113.258 Y108.344 E17.43861
G1 X110.884 Y110.718 E17.74783
G1 X109.989 Y110.718 E17.83027
G1 X112.363 Y108.344 E18.13949
G1 X111.468 Y108.344 E18.22193
G1 X109.094 Y110.718 E18.53114
G1 X108.199 Y110.718 E18.61358
G1 X110.573 Y108.344 E18.92280
G1 X110.531 Y108.344 E18.92668
G1 X110.531 Y107.491 E19.00524
G1 X107.304 Y110.718 E19.42555
G1 X106.409 Y110.718 E19.50799
G1 X110.531 Y106.596 E20.04488
G1 X110.531 Y105.701 E20.12732
G1 X105.513 Y110.718 E20.78080
G1 X104.982 Y110.718 E20.82979
G1 X104.982 Y110.355 E20.86324
G1 X110.531 Y104.806 E21.58600
G1 X110.531 Y103.911 E21.66844
G1 X104.982 Y109.460 E22.39120
G1 X104.982 Y108.565 E22.47363
G1 X110.531 Y103.016 E23.19639
G1 X110.531 Y102.121 E23.27883
G1 X104.982 Y107.670 E24.00159
G1 X104.982 Y106.775 E24.08403
G1 X110.531 Y101.226 E24.80678
G1 X110.531 Y100.331 E24.88922
G1 X104.982 Y105.880 E25.61198
G1 X104.982 Y104.985 E25.69442
G1 X110.531 Y99.436 E26.41718
G1 X110.531 Y98.540 E26.49961
G1 X104.982 Y104.089 E27.22237
G1 X104.982 Y103.194 E27.30481
G1 X110.531 Y97.645 E28.02757
G1 X110.531 Y96.750 E28.11001
G1 X104.982 Y102.299 E28.83276
G1 X104.982 Y101.404 E28.91520
G1 X110.531 Y95.855 E29.63796
G1 X110.531 Y94.960 E29.72040
G1 X104.982 Y100.509 E30.44316
G1 X104.982 Y99.614 E30.52560
G1 X110.531 Y94.065 E31.24835
G1 X110.531 Y93.170 E31.33079
G1 X104.982 Y98.719 E32.05355
G1 X104.982 Y97.824 E32.13599
G1 X110.531 Y92.275 E32.85875
G1 X110.531 Y91.380 E32.94118
G1 X104.982 Y96.929 E33.66394
G1 X104.982 Y96.034 E33.74638
G1 X111.734 Y89.282 E34.62581
G1 X110.838 Y89.282 E34.70825
G1 X104.982 Y95.138 E35.47110
G1 X104.982 Y94.243 E35.55353
G1 X109.943 Y89.282 E36.19980
G1 X109.048 Y89.282 E36.28223
G1 X104.982 Y93.348 E36.81191
G1 X104.982 Y92.453 E36.89435
G1 X108.153 Y89.282 E37.30744
G1 X107.258 Y89.282 E37.38988
G1 X104.982 Y91.558 E37.68638
G1 X104.982 Y90.663 E37.76882
G1 X106.363 Y89.282 E37.94874
G1 X105.468 Y89.282 E38.03118
G1 X104.982 Y89.768 E38.09448
G1 E34.09448 F2400.00000
G92 E0
G1 X110.045 Y91.866 F7800.000
G1 E4.00000 F2400.00000
G1 F1800
G1 X110.045 Y91.656 E4.01934
G1 X110.255 Y91.656 E4.03868
G1 X112.629 Y89.282 E4.34790
G1 X113.524 Y89.282 E4.43033
G1 X111.150 Y91.656 E4.73955
G1 X112.045 Y91.656 E4.82199
G1 X114.419 Y89.282 E5.13121
G1 X115.314 Y89.282 E5.21365
G1 X112.940 Y91.656 E5.52287
G1 X113.835 Y91.656 E5.60530
G1 X116.209 Y89.282 E5.91452
G1 X117.104 Y89.282 E5.99696
G1 X114.730 Y91.656 E6.30618
G1 X115.625 Y91.656 E6.38862
G1 X117.999 Y89.282 E6.69784
G1 X118.894 Y89.282 E6.78027
G1 X116.520 Y91.656 E7.08949
G1 X117.415 Y91.656 E7.17193
G1 X119.789 Y89.282 E7.48115
G1 X120.685 Y89.282 E7.56359
G1 X118.311 Y91.656 E7.87281
G1 X119.206 Y91.656 E7.95524
G1 X121.580 Y89.282 E8.26446
G1 X122.475 Y89.282 E8.34690
G1 X120.101 Y91.656 E8.65612
G1 X120.996 Y91.656 E8.73856
G1 X123.370 Y89.282 E9.04778
G1 X124.265 Y89.282 E9.13021
G1 X121.891 Y91.656 E9.43943
G1 X122.786 Y91.656 E9.52187
G1 X125.160 Y89.282 E9.83109
G1 X126.055 Y89.282 E9.91353
G1 X123.681 Y91.656 E10.22274
G1 X124.576 Y91.656 E10.30518
G1 X126.950 Y89.282 E10.61440
G1 X127.845 Y89.282 E10.69684
G1 X125.471 Y91.656 E11.00606
G1 X126.366 Y91.656 E11.08850
G1 X128.740 Y89.282 E11.39771
G1 X129.636 Y89.282 E11.48015
G1 X127.262 Y91.656 E11.78937
G1 X128.157 Y91.656 E11.87181
G1 X130.531 Y89.282 E12.18103
G1 X131.426 Y89.282 E12.26347
G1 X129.052 Y91.656 E12.57268
G1 X129.947 Y91.656 E12.65512
G1 X132.321 Y89.282 E12.96434
G1 X133.216 Y89.282 E13.04678
G1 X130.842 Y91.656 E13.35600
G1 X131.737 Y91.656 E13.43844
G1 X134.111 Y89.282 E13.74765
G1 X135.006 Y89.282 E13.83009
G1 X132.632 Y91.656 E14.13931
G1 X133.527 Y91.656 E14.22175
G1 X135.901 Y89.282 E14.53097
G1 X136.796 Y89.282 E14.61340
G1 X133.569 Y92.509 E15.03372
G1 X133.569 Y93.404 E15.11616
G1 X137.691 Y89.282 E15.65306
G1 X138.587 Y89.282 E15.73550
G1 X133.569 Y94.299 E16.38899
G1 X133.569 Y95.194 E16.47143
G1 X139.118 Y89.645 E17.19419
G1 X139.118 Y90.540 E17.27663
G1 X133.569 Y96.089 E17.99938
G1 X133.569 Y96.984 E18.08182
G1 X139.118 Y91.435 E18.80458
G1 X139.118 Y92.330 E18.88702
G1 X133.569 Y97.879 E19.60978
G1 X133.569 Y98.774 E19.69221
G1 X139.118 Y93.225 E20.41497
G1 X139.118 Y94.120 E20.49741
G1 X133.569 Y99.669 E21.22017
G1 X133.569 Y100.565 E21.30261
G1 X139.118 Y95.015 E22.02536
G1 X139.118 Y95.911 E22.10780
G1 X133.569 Y101.460 E22.83056
G1 X133.569 Y102.355 E22.91300
G1 X139.118 Y96.806 E23.63576
G1 X139.118 Y97.701 E23.71819
G1 X133.569 Y103.250 E24.44095
G1 X133.569 Y104.145 E24.52339
G1 X139.118 Y98.596 E25.24615
G1 X139.118 Y99.491 E25.32859
G1 X133.569 Y105.040 E26.05134
G1 X133.569 Y105.935 E26.13378
G1 X139.118 Y100.386 E26.85654
G1 X139.118 Y101.281 E26.93898
G1 X133.569 Y106.830 E27.66174
G1 X133.569 Y107.725 E27.74417
G1 X139.118 Y102.176 E28.46693
G1 X139.118 Y103.071 E28.54937
G1 X133.569 Y108.620 E29.27213
G1 Z0.350 F7800.000
G1 E25.27213 F2400.00000
G92 E0
G1 X89.087 Y107.962 F7800.000
G1 E4.00000 F2400.00000
G1 F1800
G1 X66.813 Y107.962 E6.02545
G1 X66.813 Y92.038 E7.47350
G1 X89.087 Y92.038 E9.49895
G1 X89.087 Y107.887 E10.94018
G1 X88.463 Y107.338 F7800.000
G1 F1800
G1 X67.437 Y107.338 E12.85199
G1 X67.437 Y92.662 E14.18640
G1 X88.463 Y92.662 E16.09821
G1 X88.463 Y107.263 E17.42580
G1 X87.838 Y106.713 F7800.000
G1 F1800
G1 X68.062 Y106.713 E19.22397
G1 X68.062 Y93.287 E20.44473
G1 X87.838 Y93.287 E22.24290
G1 X87.838 Y106.638 E23.45685
G1 X87.997 Y107.187 F7800.000
G1 E19.45685 F2400.00000
G92 E0
G1 X95.400 Y111.100 F7800.000
G1 E4.00000 F2400.00000
G1 F1800
G1 X60.500 Y111.100 E7.17348
G1 X60.500 Y88.900 E9.19216
G1 X95.400 Y88.900 E12.36564
G1 X95.400 Y111.025 E14.37750
G1 X96.025 Y111.725 F7800.000
G1 F1800
G1 X59.875 Y111.725 E17.66462
G1 X59.875 Y88.275 E19.79694
G1 X96.025 Y88.275 E23.08407
G1 X96.025 Y111.650 E25.20957
G1 X96.650 Y112.350 F7800.000
G1 F1800
G1 X59.250 Y112.350 E28.61033
G1 X59.250 Y87.650 E30.85629
G1 X96.650 Y87.650 E34.25706
G1 X96.650 Y112.275 E36.49620
G1 X96.159 Y112.253 F7800.000
G1 E32.49620 F2400.00000
G92 E0
G1 X94.532 Y110.718 F7800.000
G1 E4.00000 F2400.00000
G1 F1800
G1 X95.018 Y110.232 E4.06333
G1 X95.018 Y109.337 E4.14576
G1 X93.637 Y110.718 E4.32568
G1 X92.742 Y110.718 E4.40811
G1 X95.018 Y108.442 E4.70461
G1 X95.018 Y107.547 E4.78705
G1 X91.847 Y110.718 E5.20013
G1 X90.952 Y110.718 E5.28257
G1 X95.018 Y106.652 E5.81224
G1 X95.018 Y105.757 E5.89468
G1 X90.057 Y110.718 E6.54093
G1 X89.162 Y110.718 E6.62337
G1 X95.018 Y104.862 E7.38621
G1 X95.018 Y103.966 E7.46865
G1 X88.266 Y110.718 E8.34807
G1 X87.371 Y110.718 E8.43051
G1 X89.745 Y108.344 E8.73973
G1 X88.850 Y108.344 E8.82217
G1 X86.476 Y110.718 E9.13138
G1 X85.581 Y110.718 E9.21382
G1 X87.955 Y108.344 E9.52304
G1 X87.060 Y108.344 E9.60548
G1 X84.686 Y110.718 E9.91470
G1 X83.791 Y110.718 E9.99714
G1 X86.165 Y108.344 E10.30635
G1 X85.270 Y108.344 E10.38879
G1 X82.896 Y110.718 E10.69801
G1 X82.001 Y110.718 E10.78045
G1 X84.375 Y108.344 E11.08967
G1 X83.480 Y108.344 E11.17211
G1 X81.106 Y110.718 E11.48132
G1 X80.211 Y110.718 E11.56376
G1 X82.585 Y108.344 E11.87298
G1 X81.690 Y108.344 E11.95542
G1 X79.315 Y110.718 E12.26464
G1 X78.420 Y110.718 E12.34708
G1 X80.794 Y108.344 E12.65629
G1 X79.899 Y108.344 E12.73873
G1 X77.525 Y110.718 E13.04795
G1 X76.630 Y110.718 E13.13039
G1 X79.004 Y108.344 E13.43961
G1 X78.109 Y108.344 E13.52205
G1 X75.735 Y110.718 E13.83126
G1 X74.840 Y110.718 E13.91370
G1 X77.214 Y108.344 E14.22292
G1 X76.319 Y108.344 E14.30536
G1 X73.945 Y110.718 E14.61458
G1 X73.050 Y110.718 E14.69702
G1 X75.424 Y108.344 E15.00623
G1 X74.529 Y108.344 E15.08867
G1 X72.155 Y110.718 E15.39789
G1 X71.260 Y110.718 E15.48033
G1 X73.634 Y108.344 E15.78955
G1 X72.739 Y108.344 E15.87199
G1 X70.364 Y110.718 E16.18120
G1 X69.469 Y110.718 E16.26364
G1 X71.843 Y108.344 E16.57286
G1 X70.948 Y108.344 E16.65530
G1 X68.574 Y110.718 E16.96452
G1 X67.679 Y110.718 E17.04696
G1 X70.053 Y108.344 E17.35617
G1 X69.158 Y108.344 E17.43861
G1 X66.784 Y110.718 E17.74783
G1 X65.889 Y110.718 E17.83027
G1 X68.263 Y108.344 E18.13949
G1 X67.368 Y108.344 E18.22193
G1 X64.994 Y110.718 E18.53114
G1 X64.099 Y110.718 E18.61358
G1 X66.473 Y108.344 E18.92280
G1 X66.431 Y108.344 E18.92668
G1 X66.431 Y107.491 E19.00524
G1 X63.204 Y110.718 E19.42555
G1 X62.309 Y110.718 E19.50799
G1 X66.431 Y106.596 E20.04488
G1 X66.431 Y105.701 E20.12732
G1 X61.413 Y110.718 E20.78080
G1 X60.882 Y110.718 E20.82979
G1 X60.882 Y110.355 E20.86324
G1 X66.431 Y104.806 E21.58600
G1 X66.431 Y103.911 E21.66844
G1 X60.882 Y109.460 E22.39120
G1 X60.882 Y108.565 E22.47363
G1 X66.431 Y103.016 E23.19639
G1 X66.431 Y102.121 E23.27883
G1 X60.882 Y107.670 E24.00159
G1 X60.882 Y106.775 E24.08403
G1 X66.431 Y101.226 E24.80678
G1 X66.431 Y100.331 E24.88922
G1 X60.882 Y105.880 E25.61198
G1 X60.882 Y104.985 E25.69442
G1 X66.431 Y99.436 E26.41718
G1 X66.431 Y98.540 E26.49961
G1 X60.882 Y104.089 E27.22237
G1 X60.882 Y103.194 E27.30481
G1 X66.431 Y97.645 E28.02757
G1 X66.431 Y96.750 E28.11001
G1 X60.882 Y102.299 E28.83276
G1 X60.882 Y101.404 E28.91520
G1 X66.431 Y95.855 E29.63796
G1 X66.431 Y94.960 E29.72040
G1 X60.882 Y100.509 E30.44316
G1 X60.882 Y99.614 E30.52560
G1 X66.431 Y94.065 E31.24835
G1 X66.431 Y93.170 E31.33079
G1 X60.882 Y98.719 E32.05355
G1 X60.882 Y97.824 E32.13599
G1 X66.431 Y92.275 E32.85875
G1 X66.431 Y91.380 E32.94118
G1 X60.882 Y96.929 E33.66394
G1 X60.882 Y96.034 E33.74638
G1 X67.634 Y89.282 E34.62581
G1 X66.738 Y89.282 E34.70825
G1 X60.882 Y95.138 E35.47110
G1 X60.882 Y94.243 E35.55353
G1 X65.843 Y89.282 E36.19980
G1 X64.948 Y89.282 E36.28223
G1 X60.882 Y93.348 E36.81191
G1 X60.882 Y92.453 E36.89435
G1 X64.053 Y89.282 E37.30744
G1 X63.158 Y89.282 E37.38988
G1 X60.882 Y91.558 E37.68638
G1 X60.882 Y90.663 E37.76882
G1 X62.263 Y89.282 E37.94874
G1 X61.368 Y89.282 E38.03118
G1 X60.882 Y89.768 E38.09448
G1 E34.09448 F2400.00000
G92 E0
G1 X65.945 Y91.866 F7800.000
G1 E4.00000 F2400.00000
G1 F1800
G1 X65.945 Y91.656 E4.01934
G1 X66.155 Y91.656 E4.03868
G1 X68.529 Y89.282 E4.34790
G1 X69.424 Y89.282 E4.43033
G1 X67.050 Y91.656 E4.73955
G1 X67.945 Y91.656 E4.82199
G1 X70.319 Y89.282 E5.13121
G1 X71.214 Y89.282 E5.21365
G1 X68.840 Y91.656 E5.52287
G1 X69.735 Y91.656 E5.60530
G1 X72.109 Y89.282 E5.91452
G1 X73.004 Y89.282 E5.99696
G1 X70.630 Y91.656 E6.30618
G1 X71.525 Y91.656 E6.38862
G1 X73.899 Y89.282 E6.69784
G1 X74.794 Y89.282 E6.78027
G1 X72.420 Y91.656 E7.08949
G1 X73.315 Y91.656 E7.17193
G1 X75.689 Y89.282 E7.48115
G1 X76.585 Y89.282 E7.56359
G1 X74.211 Y91.656 E7.87281
G1 X75.106 Y91.656 E7.95524
G1 X77.480 Y89.282 E8.26446
G1 X78.375 Y89.282 E8.34690
G1 X76.001 Y91.656 E8.65612
G1 X76.896 Y91.656 E8.73856
G1 X79.270 Y89.282 E9.04778
G1 X80.165 Y89.282 E9.13021
G1 X77.791 Y91.656 E9.43943
G1 X78.686 Y91.656 E9.52187
G1 X81.060 Y89.282 E9.83109
G1 X81.955 Y89.282 E9.91353
G1 X79.581 Y91.656 E10.22274
G1 X80.476 Y91.656 E10.30518
G1 X82.850 Y89.282 E10.61440
G1 X83.745 Y89.282 E10.69684
G1 X81.371 Y91.656 E11.00606
G1 X82.266 Y91.656 E11.08850
G1 X84.640 Y89.282 E11.39771
G1 X85.536 Y89.282 E11.48015
G1 X83.162 Y91.656 E11.78937
G1 X84.057 Y91.656 E11.87181
G1 X86.431 Y89.282 E12.18103
G1 X87.326 Y89.282 E12.26347
G1 X84.952 Y91.656 E12.57268
G1 X85.847 Y91.656 E12.65512
G1 X88.221 Y89.282 E12.96434
G1 X89.116 Y89.282 E13.04678
G1 X86.742 Y91.656 E13.35600
G1 X87.637 Y91.656 E13.43844
G1 X90.011 Y89.282 E13.74765
G1 X90.906 Y89.282 E13.83009
G1 X88.532 Y91.656 E14.13931
G1 X89.427 Y91.656 E14.22175
G1 X91.801 Y89.282 E14.53097
